svg/sentry.svg

<svg viewBox="0 0 20 20" xmlns="http://www.w3.org/2000/svg">
<rect width="100%" height="100%" fill="#352E56"/>
<path d="M18.0416 16.5782C18.1782 16.3397 18.25 16.0696 18.25 15.7947C18.25 15.5198 18.1782 15.2497 18.0416 15.0112L11.3197 3.03119C11.1899 2.79467 10.9989 2.59737 10.7668 2.45994C10.5346 2.32251 10.2698 2.25 10 2.25C9.73021 2.25 9.46539 2.32251 9.23323 2.45994C9.00107 2.59737 8.81012 2.79467 8.68035 3.03119L6.50498 6.89736L7.06171 7.22727C8.68792 8.19845 10.0287 9.58195 10.9485 11.2378C11.7855 12.7267 12.2688 14.3881 12.3609 16.0937H10.8351C10.74 14.678 10.3315 13.3011 9.63916 12.0626C8.85263 10.6266 7.70018 9.42438 6.29879 8.57785L5.75237 8.25825L3.69041 11.877L4.23683 12.2069C4.92585 12.6199 5.51153 13.1846 5.94925 13.8582C6.38698 14.5318 6.6652 15.2963 6.76273 16.0937H3.27802C3.23441 16.0931 3.19168 16.0814 3.15381 16.0598C3.11594 16.0381 3.08419 16.0072 3.06151 15.97C3.03783 15.9312 3.0253 15.8866 3.0253 15.8411C3.0253 15.7956 3.03783 15.751 3.06151 15.7122L4.03063 13.9802C3.70704 13.6962 3.33278 13.4759 2.92749 13.3307L1.95837 15.0627C1.82183 15.3013 1.75 15.5714 1.75 15.8463C1.75 16.1211 1.82183 16.3912 1.95837 16.6298C2.08783 16.8668 2.27865 17.0645 2.51083 17.2024C2.74301 17.3402 3.008 17.4131 3.27802 17.4133H8.07207V16.7123C8.06976 15.5724 7.77892 14.4516 7.22667 13.4544C6.78445 12.6488 6.17657 11.9461 5.44307 11.3924L6.206 10.0315C7.1635 10.7208 7.95874 11.611 8.53601 12.6399C9.22024 13.8765 9.57525 15.2681 9.56699 16.6813V17.3309H13.629V16.7123C13.6405 14.5468 13.0899 12.4154 12.031 10.5264C11.0986 8.87299 9.79226 7.4607 8.21641 6.40249L9.78349 3.72195C9.80489 3.68327 9.83626 3.65104 9.87433 3.62859C9.91241 3.60614 9.9558 3.5943 10 3.5943C10.0442 3.5943 10.0876 3.60614 10.1257 3.62859C10.1637 3.65104 10.1951 3.68327 10.2165 3.72195L16.9385 15.7122C16.9622 15.751 16.9747 15.7956 16.9747 15.8411C16.9747 15.8866 16.9622 15.9312 16.9385 15.97C16.9166 16.0079 16.885 16.0394 16.847 16.0611C16.8089 16.0828 16.7658 16.0941 16.722 16.0937H15.1549V17.403H16.7323C17.0023 17.4028 17.2673 17.3299 17.4995 17.1921C17.7317 17.0542 17.9225 16.8564 18.0519 16.6195" fill="white"/>
</svg>

<svg xmlns="http://www.w3.org/2000/svg" viewBox="0 0 20 20">
  <rect width="100%" height="100%" fill="#352E56"/>
  <path fill="#fff" d="M18.04 16.58a1.58 1.58 0 0 0 0-1.57L11.32 3.03a1.5 1.5 0 0 0-2.64 0L6.5 6.9l.56.33c1.63.97 2.97 2.35 3.89 4a11.13 11.13 0 0 1 1.41 4.86h-1.52A9.58 9.58 0 0 0 6.3 8.58l-.55-.32-2.06 3.62.55.33a5.28 5.28 0 0 1 2.52 3.88H3.28a.26.26 0 0 1-.22-.12.25.25 0 0 1 0-.26l.97-1.73c-.32-.28-.7-.5-1.1-.65l-.97 1.73a1.58 1.58 0 0 0 .55 2.14c.23.14.5.21.77.21h4.8v-.7a6.75 6.75 0 0 0-2.64-5.32l.77-1.36a8.1 8.1 0 0 1 3.36 6.65v.65h4.06v-.62c.01-2.16-.54-4.3-1.6-6.18A12.17 12.17 0 0 0 8.22 6.4l1.56-2.68a.25.25 0 0 1 .44 0l6.72 12a.25.25 0 0 1 0 .25.25.25 0 0 1-.22.12h-1.57v1.31h1.58a1.5 1.5 0 0 0 1.32-.78"/>
</svg>
